X:1
T:Pippingo Reel, The
M:6/8
L:1/8
R:Jig
B:Goulding - Twenty-Four Country Dances for the Year 1789
Z:AK/Fiddler's Companion
K:Edor
BEE GEE|BEE GBe|BEE GEE|ADD FAd|
BEE GEE|BEE GEE|def edc|dDE FGA:|
|:eBe gfe|bag fga|eBe gfe|afd fga|
eBe gfe|bag fed|dgf edc|dDE FGA:|]

